X:631
T:Da Wattle o' T
C:Joe Buchanan's Scottish Tome - Page 188.2
I:188 2
Z:Carl Allison
R:Reel
L:1/8
M:4/4
K:D
de | f2 fd g2 ge | fd faaf | gefd ecdB | AFDF Ad d2 :|
Addc d2 df | edcd ef g2 | fedc d2 AB | AFDF Ad d2 :|
